X:1
T:Engels Pols
C:Erik Jensen
R:Totakt-pols
Z:Patrik Mnsson, 2008-10-08
O:Boes, rhus amt
S:Totakt-pols 
N:EJ-64 Totakt-pols av ke Persson, Ethel Wieslander m fl)
M:2/4
L:1/16
K:G
|: g2(bg) g2d2 | g2(bg) g2d2 | d2e2 d2c2 | c4 B4 | g2(bg) g2d2 | g2(bg) g2d2 | e2c2  A2F2 | G2 G,2 :|
|: G2(AB) c2B2 | B4 A4 | d2(ef) g2e2 | e4 d4 | g2(AB) c2B2 | B4 (A2g2) | e2c2 A2F2 | G4 G,4 :|
